X:1
T:[ID 2-99]
T:[ID 2-99]
T:Bezeichnung standardisiert: Menuet [mit Trio] Menuet [mit Trio] ex C. #.
T:Urheber unbekannt Datum in der hier transkribierten schriftlichen Quelle: 1776 - 1791
C:Urheber unbekannt
C:Datum in der hier transkribierten schriftlichen Quelle: 1776 - 1791
%%score 1 2
L:1/8
M:3/4
K:C
V:1 treble 
V:2 treble nm="Secondo"
V:1
 g6 | e6 | c6 | G6 | c2 G2 eB | cGecge | c2 G2 ed | c4 z2 :: d2 e2 f2 | e2 (^fg)(fg) | d2 e2 f2 | %11
 e6 | c2 G2 eB | cGecge | c2 G2 ed |{d} c6 :|[M:3/4]"^Trio" !fermata!gagfef | g2 g2 g2 | gagfef | %19
 g2 z2 eg | f2 z2 df | e2 z2 ce | d2 c2 B2 | c6 :: d2 e2 f2 | e2 (^fg)(fg) | d2 e2 =f2 | e2 z2 eg | %28
 f2 z2 df | e2 z2 ce | d2 c2 B2 | c6 :| %32
V:2
 !fermata!e6 | c6 | E6 | G,6 | E2 G,2 c2 | EG,Ec ec | E2 C2 cG | E6 :: G2 c2 d2 | c2 dede | %10
 G2 c2 d2 | c6 | E2 C2 c2 | EG,Ec ec | E2 C2 cG | E6 :|[M:3/4] efedcd | e2 e2 e2 | efedcd | %19
 e2 z2 ce | d2 z2 Bd | c2 z2 Ac | F2 E2 G2 | e6 :: B2 c2 d2 | c2 (de)(de) | B2 c2 d2 | c2 z2 ce | %28
 d2 z2 Bd | c2 z2 Ac | F2 E2 D2 | E6 :| %32

